X: 1
T: Micho Russell's
M: 4/4
L: 1/8
R: reel
K: Gmaj
B2Ac B~G3|BGdG DGGA|B2Ac B~G3|dBAG DGGA:|
G2Bd gagf|d2cA dBcA|G2Bd g2ag|fdcA BG~G2:|
